images/flaticons/picture.svg

<svg height="512" viewBox="0 0 24 24" width="512" xmlns="http://www.w3.org/2000/svg"><path d="m19.5 0h-15a4.505 4.505 0 0 0 -4.5 4.5v15a4.505 4.505 0 0 0 4.5 4.5h15a4.505 4.505 0 0 0 4.5-4.5v-15a4.505 4.505 0 0 0 -4.5-4.5zm-15 3h15a1.5 1.5 0 0 1 1.5 1.5v15a1.492 1.492 0 0 1 -.44 1.06l-8.732-8.732a4 4 0 0 0 -5.656 0l-3.172 3.172v-10.5a1.5 1.5 0 0 1 1.5-1.5z"/><circle cx="15.5" cy="7.5" r="2.5"/></svg>

<?xml version="1.0" encoding="UTF-8"?>
<svg xmlns="http://www.w3.org/2000/svg" id="Bold" viewBox="0 0 24 24" width="512" height="512"><path d="M19.5,0H4.5A4.505,4.505,0,0,0,0,4.5v15A4.505,4.505,0,0,0,4.5,24h15A4.505,4.505,0,0,0,24,19.5V4.5A4.505,4.505,0,0,0,19.5,0ZM4.5,3h15A1.5,1.5,0,0,1,21,4.5v15a1.492,1.492,0,0,1-.44,1.06l-8.732-8.732a4,4,0,0,0-5.656,0L3,15V4.5A1.5,1.5,0,0,1,4.5,3Z"/><circle cx="15.5" cy="7.5" r="2.5"/></svg>
